X: 556
T: Xiang gege
%%abc-version 2.0
%%abcx-abcm2ps-target-version 5.9.1 (29 Sep 2008)
%%abc-creator hum2abc beta
%%abcx-conversion-date 2013/10/02 07:52:30
%%abc-edited-by Helmut Schaffrath
%%humdrum-veritas 2855376028
%%humdrum-veritas-data 925900860
%%continueall 1
%%barnumbers 0
L: 1/8
M: 2/4
K: F
c2E2 [I:setbarnb 1]| 
f df2 | 
d c A c | 
G3A | 
G/ A/ G/ F/ D F | 
G4 | 
ff2d | 
c2C2 | 
GG2F/ D/ | 
C4 |]  



